X: 14915
T: Gathering, The
R: jig
M: 6/8
K: Adorian
|"Am"A,EA cB/c/B|AGE DEF|"Am/G"GB,F A,EA,|"Am/D"E/F/ED CDE|
"Am"A,EA cB/c/B|AGE GAB|1 "Am/G"dEd cBA|"Am/D"B/c/BG A2z:|
[2 "Am/G"dEe dcB|"Am"c/d/cB A2z||

